svg/shirt.svg

<?xml version="1.0" encoding="UTF-8" standalone="no"?>
<svg
   xmlns:dc="http://purl.org/dc/elements/1.1/"
   xmlns:cc="http://creativecommons.org/ns#"
   xmlns:rdf="http://www.w3.org/1999/02/22-rdf-syntax-ns#"
   xmlns:svg="http://www.w3.org/2000/svg"
   xmlns="http://www.w3.org/2000/svg"
   xmlns:sodipodi="http://sodipodi.sourceforge.net/DTD/sodipodi-0.dtd"
   xmlns:inkscape="http://www.inkscape.org/namespaces/inkscape"
   class="ionicon"
   viewBox="0 0 512 512"
   version="1.1"
   id="svg8"
   sodipodi:docname="shirt.svg"
   inkscape:version="1.0.2 (e86c8708, 2021-01-15)">
  <metadata
     id="metadata14">
    <rdf:RDF>
      <cc:Work
         rdf:about="">
        <dc:format>image/svg+xml</dc:format>
        <dc:type
           rdf:resource="http://purl.org/dc/dcmitype/StillImage" />
      </cc:Work>
    </rdf:RDF>
  </metadata>
  <defs
     id="defs12" />
  <sodipodi:namedview
     pagecolor="#ffffff"
     bordercolor="#666666"
     borderopacity="1"
     objecttolerance="10"
     gridtolerance="10"
     guidetolerance="10"
     inkscape:pageopacity="0"
     inkscape:pageshadow="2"
     inkscape:window-width="689"
     inkscape:window-height="480"
     id="namedview10"
     showgrid="false"
     inkscape:zoom="1.3027344"
     inkscape:cx="256"
     inkscape:cy="256"
     inkscape:window-x="44"
     inkscape:window-y="25"
     inkscape:window-maximized="0"
     inkscape:current-layer="svg8" />
  <title
     id="title2">Shirt</title>
  <path
     style="color:#000000;font-style:normal;font-variant:normal;font-weight:normal;font-stretch:normal;font-size:medium;line-height:normal;font-family:sans-serif;font-variant-ligatures:normal;font-variant-position:normal;font-variant-caps:normal;font-variant-numeric:normal;font-variant-alternates:normal;font-variant-east-asian:normal;font-feature-settings:normal;font-variation-settings:normal;text-indent:0;text-align:start;text-decoration:none;text-decoration-line:none;text-decoration-style:solid;text-decoration-color:#000000;letter-spacing:normal;word-spacing:normal;text-transform:none;writing-mode:lr-tb;direction:ltr;text-orientation:mixed;dominant-baseline:auto;baseline-shift:baseline;text-anchor:start;white-space:normal;shape-padding:0;shape-margin:0;inline-size:0;clip-rule:nonzero;display:inline;overflow:visible;visibility:visible;isolation:auto;mix-blend-mode:normal;color-interpolation:sRGB;color-interpolation-filters:linearRGB;solid-color:#000000;solid-opacity:1;vector-effect:none;fill:#000000;fill-opacity:1;fill-rule:nonzero;stroke-width:1;stroke-linecap:butt;stroke-linejoin:miter;stroke-miterlimit:4;stroke-dasharray:none;stroke-dashoffset:0;stroke-opacity:1;color-rendering:auto;image-rendering:auto;shape-rendering:auto;text-rendering:auto;enable-background:accumulate;stop-color:#000000;stop-opacity:1;stroke:none;opacity:1"
     d="m 256,96 c 33.08,0 60.71,-25.78 64,-58 0.3,-3 -3,-6 -6,-6 -1.62232,0.0016 -3.23,0.306867 -4.74,0.9 -0.2,0.08 -21.1,8.1 -53.26,8.1 -32.16,0 -53.1,-8 -53.26,-8.1 -1.70426,-0.592899 -3.49555,-0.897081 -5.3,-0.9 h -0.06 c -3.14469,0.166647 -5.55598,2.855823 -5.38,6 3.35,32.16 31,58 64,58 z"
     id="path4" />
  <path
     style="color:#000000;font-style:normal;font-variant:normal;font-weight:normal;font-stretch:normal;font-size:medium;line-height:normal;font-family:sans-serif;font-variant-ligatures:normal;font-variant-position:normal;font-variant-caps:normal;font-variant-numeric:normal;font-variant-alternates:normal;font-variant-east-asian:normal;font-feature-settings:normal;font-variation-settings:normal;text-indent:0;text-align:start;text-decoration:none;text-decoration-line:none;text-decoration-style:solid;text-decoration-color:#000000;letter-spacing:normal;word-spacing:normal;text-transform:none;writing-mode:lr-tb;direction:ltr;text-orientation:mixed;dominant-baseline:auto;baseline-shift:baseline;text-anchor:start;white-space:normal;shape-padding:0;shape-margin:0;inline-size:0;clip-rule:nonzero;display:inline;overflow:visible;visibility:visible;isolation:auto;mix-blend-mode:normal;color-interpolation:sRGB;color-interpolation-filters:linearRGB;solid-color:#000000;solid-opacity:1;vector-effect:none;fill:#000000;fill-opacity:1;fill-rule:nonzero;stroke-width:1;stroke-linecap:butt;stroke-linejoin:miter;stroke-miterlimit:4;stroke-dasharray:none;stroke-dashoffset:0;stroke-opacity:1;color-rendering:auto;image-rendering:auto;shape-rendering:auto;text-rendering:auto;enable-background:accumulate;stop-color:#000000;stop-opacity:1;stroke:none;opacity:1"
     d="M 485.29,89.9 356,44.64 c -2.35795,-0.822776 -4.88498,0.692478 -5.27,3.16 -7.72475,46.279536 -47.77021,80.1948 -94.69,80.1948 -46.91979,0 -86.96525,-33.915264 -94.69,-80.1948 -0.37447,-2.513775 -2.96774,-4.045499 -5.35,-3.16 L 26.71,89.9 C 19.230946,92.518168 14.794938,100.21632 16.28,108 l 16.63,88 c 1.313666,6.88475 6.955364,12.11304 13.92,12.9 l 48.88,5.52 c 4.137283,0.46651 7.2251,4.02838 7.1,8.19 l -7.33,240.9 c -0.198566,6.34416 3.371806,12.20585 9.1,14.94 2.33029,1.05287 4.8631,1.58196 7.42,1.55 h 288 c 2.5569,0.032 5.08971,-0.49713 7.42,-1.55 5.72819,-2.73415 9.29857,-8.59584 9.1,-14.94 l -7.33,-240.9 c -0.1251,-4.16162 2.96272,-7.72349 7.1,-8.19 l 48.88,-5.52 c 6.96464,-0.78696 12.60633,-6.01525 13.92,-12.9 l 16.63,-88 c 1.48506,-7.78368 -2.95095,-15.481832 -10.43,-18.1 z"
     id="path6" />
</svg>

<svg xmlns="http://www.w3.org/2000/svg" width="512" height="512" viewBox="0 0 512 512"><title>ionicons-v5-q</title><path d="M256,96c33.08,0,60.71-25.78,64-58,.3-3-3-6-6-6h0a13,13,0,0,0-4.74.9c-.2.08-21.1,8.1-53.26,8.1s-53.1-8-53.26-8.1a16.21,16.21,0,0,0-5.3-.9h-.06A5.69,5.69,0,0,0,192,38C195.35,70.16,223,96,256,96Z"/><path d="M485.29,89.9,356,44.64a4,4,0,0,0-5.27,3.16,96,96,0,0,1-189.38,0A4,4,0,0,0,156,44.64L26.71,89.9A16,16,0,0,0,16.28,108l16.63,88A16,16,0,0,0,46.83,208.9l48.88,5.52a8,8,0,0,1,7.1,8.19l-7.33,240.9a16,16,0,0,0,9.1,14.94A17.49,17.49,0,0,0,112,480H400a17.49,17.49,0,0,0,7.42-1.55,16,16,0,0,0,9.1-14.94l-7.33-240.9a8,8,0,0,1,7.1-8.19l48.88-5.52A16,16,0,0,0,479.09,196l16.63-88A16,16,0,0,0,485.29,89.9Z"/></svg>
